tools/download-figma-icons/icons/outlined-medium/medal.svg

<svg width="24" height="25" viewBox="0 0 24 25" fill="none" xmlns="http://www.w3.org/2000/svg">
<path d="M11.9999 24.0019C7.92685 24.0019 4.61279 20.6804 4.61279 16.5923C4.61279 12.5042 7.92685 9.18262 11.9999 9.18262C16.073 9.18262 19.387 12.5042 19.387 16.5923C19.387 20.6804 16.073 24.0019 11.9999 24.0019ZM11.9999 10.6856C8.75348 10.6856 6.11577 13.3383 6.11577 16.5923C6.11577 19.8462 8.75348 22.499 11.9999 22.499C15.2463 22.499 17.884 19.8462 17.884 16.5923C17.884 13.3383 15.2463 10.6856 11.9999 10.6856Z" fill="black"/>
<path d="M10.0835 20.3709C9.91067 20.3709 9.73783 20.3183 9.59505 20.2056L9.21931 19.9275L9.27191 19.4015L9.56499 17.6881L8.32504 16.4707C8.09959 16.2452 8.01693 15.9146 8.12214 15.6215C8.21983 15.3209 8.47533 15.1105 8.79096 15.0654L10.4968 14.8174L11.2633 13.2618C11.4061 12.9763 11.6917 12.7959 12.0073 12.7959C12.3229 12.7959 12.6085 12.9763 12.7513 13.2543L13.5178 14.8099L15.2237 15.0579C15.5318 15.103 15.7873 15.3134 15.885 15.614C15.9827 15.9146 15.9075 16.2377 15.6821 16.4632L14.4346 17.6806L14.7277 19.394C14.7803 19.7021 14.6601 20.0102 14.4046 20.198C14.1491 20.3859 13.8109 20.4085 13.5328 20.2657L12.0073 19.4616L10.4818 20.2657C10.354 20.3333 10.2188 20.3634 10.091 20.3634L10.0835 20.3709ZM10.3541 16.3579L10.8049 16.7938C11.1807 17.1695 11.1055 17.643 11.0755 17.8008L10.9928 18.3043L11.9697 17.7858L12.3906 17.9736L13.0143 18.3043L12.8264 17.2071L13.1195 16.869L13.6456 16.3579L12.5484 16.2001L12.3154 15.8094L11.9998 15.1631L11.5113 16.155L11.068 16.2527L10.3541 16.3579Z" fill="black"/>
<path d="M17.1626 12.293C17.0348 12.293 16.9146 12.263 16.7943 12.1953C16.4336 11.9924 16.3059 11.534 16.5088 11.1733L22.5958 0.381979C22.7987 0.0212651 23.2571 -0.106488 23.6178 0.0964137C23.9785 0.299315 24.1063 0.757722 23.9034 1.11844L17.8164 11.9098C17.6811 12.1578 17.4256 12.293 17.1626 12.293Z" fill="black"/>
<path d="M12.3457 10.4895C12.2179 10.4895 12.0977 10.4594 11.9774 10.3918C11.6167 10.1889 11.489 9.73047 11.6919 9.36976L16.7644 0.381979C16.9673 0.0212651 17.4257 -0.106488 17.7864 0.0964137C18.1471 0.299315 18.2749 0.757722 18.072 1.11844L12.9995 10.1062C12.8642 10.3542 12.6087 10.4895 12.3457 10.4895Z" fill="black"/>
<path d="M6.83725 12.293C6.57423 12.293 6.31872 12.1578 6.18345 11.9098L0.0964137 1.11844C-0.106488 0.757722 0.0212651 0.299315 0.381979 0.0964137C0.742692 -0.106488 1.2011 0.0212651 1.404 0.381979L7.49104 11.1733C7.69394 11.534 7.56619 11.9924 7.20548 12.1953C7.08524 12.263 6.965 12.293 6.83725 12.293Z" fill="black"/>
<path d="M11.6543 10.4895C11.3913 10.4895 11.1358 10.3542 11.0005 10.1062L5.92796 1.11844C5.72506 0.757722 5.85281 0.299315 6.21352 0.0964137C6.57424 -0.106488 7.03264 0.0212651 7.23554 0.381979L12.3081 9.36976C12.511 9.73047 12.3832 10.1889 12.0225 10.3918C11.9023 10.4594 11.782 10.4895 11.6543 10.4895Z" fill="black"/>
</svg>

<svg width="24" height="25" viewBox="0 0 24 25" fill="none" xmlns="http://www.w3.org/2000/svg"><path d="M12 24.002c-4.073 0-7.387-3.322-7.387-7.41S7.927 9.182 12 9.182c4.073 0 7.387 3.322 7.387 7.41s-3.314 7.41-7.387 7.41Zm0-13.316c-3.247 0-5.884 2.652-5.884 5.906 0 3.254 2.637 5.907 5.884 5.907 3.246 0 5.884-2.653 5.884-5.907S15.246 10.686 12 10.686Z" fill="currentColor"/><path d="M10.084 20.37a.783.783 0 0 1-.489-.164l-.376-.279.053-.526.293-1.713-1.24-1.217a.816.816 0 0 1-.203-.85.814.814 0 0 1 .669-.556l1.706-.248.766-1.555a.832.832 0 0 1 .744-.466.84.84 0 0 1 .744.458l.767 1.556 1.706.248a.828.828 0 0 1 .458 1.405l-1.247 1.218.293 1.713a.819.819 0 0 1-.323.804.831.831 0 0 1-.872.068l-1.526-.804-1.525.804a.836.836 0 0 1-.391.097l-.007.008Zm.27-4.012.45.436c.377.375.301.849.271 1.007l-.082.503.977-.518.42.188.624.33-.188-1.097.293-.338.527-.511-1.098-.158-.233-.39-.315-.647-.489.992-.443.098-.714.105Zm6.809-4.065a.751.751 0 0 1-.654-1.12L22.596.382a.751.751 0 0 1 1.307.736L17.816 11.91a.74.74 0 0 1-.653.383Zm-4.817-1.803a.751.751 0 0 1-.654-1.12L16.764.382a.751.751 0 0 1 1.308.736L13 10.106a.74.74 0 0 1-.654.383Zm-5.509 1.803a.74.74 0 0 1-.654-.383L.096 1.118A.751.751 0 0 1 1.404.382l6.087 10.791a.751.751 0 0 1-.654 1.12Z" fill="currentColor"/><path d="M11.654 10.49a.74.74 0 0 1-.653-.384L5.928 1.118A.751.751 0 0 1 7.236.382l5.072 8.988a.751.751 0 0 1-.654 1.12Z" fill="currentColor"/></svg>
